X:SSF 13-19 133
T:?
M:4/4
K:G
P:A
B4 B2B2 cBA2 B4 |1,3 ABAG F2AB AGFG E2D2 :|2,4 ABAG FDEF G4 G2 :|
P:B
F2| E4 G4 c4-c2B2 |1,3 ABAG F2AB AGF2 E2D2 :|2 ABAG FDEF G4 G2 :| E4 G4 c4-c2Bc d2c2 B2A2 G4 G2 ||

% Into...

